**kern	**kern	**dynam
*part1	*part1	*part1
*staff2	*staff1	*
*I"Piano	*	*
*clefF4	*clefG2	*
*k[f#]	*k[f#]	*
=1	=1	=1
*	*^	*
4EE 4E	(8.g#XL	4G#X 4B	.
.	16eJk	.	.
(4EE 4E	[4g#)	[4G# [4B	.
=	=	=	=
4E)	8.g#L]	4G#] 4B]	.
.	16eJk	.	.
(4C#X	[4g#X	(4G#X 4c#X 4e	.
=	=	=	=
(4GG#X) 4G#X	(4g#]	4B) 4d#X	p
8D#XL) 8F#	8f#L)	8A#XL 8d#	.
8D#J 8F#	8d#J	8A#J	.
=	=	=	=
4GG#X 4G#X	8g#XL	4B	.
.	16.d#XL	.	.
.	32e#XJJk	.	.
4D#X 4F#	4f#	4A#X	.
=	=	=	=
(4D#X 4An	(4f#	4B	<
8EL) 8Gn	8gnL)	8BL	.
8EJ 8G	8eJ	8BJ	.
=	=	=	=
*	*	*^	*
2AA 2Fn 2A	(8.ccL	2c	4fn/	[ sf
.	16aJk	.	.	.
.	4f#X)	.	4ryy	.
*	*	*v	*v	*
=	=	=	=
*^	*	*	*
(4G	(4BB	(4b	4B 4e	mf
8F#L)	8BBL)	8aL)	8cL 8e	.
8EJ	8BBJ	8gJ	8BJ 8e	.
*v	*v	*	*	*
*	*v	*v	*
=	=	=
*-	*-	*-
!!!system-decoration: {(s1,s2)}
